X: 1827
T: The Devil In Dublin
M:6/8
L:1/8
B:O'Neill's 1827
Z:"Transcribed by Bob Safranek, rjs@gsp.org"
K:G
   G2 B d2 B | e2 c A3  |    BdB GBG | FAF   D3  |
   G2 B d2 B | e2 c ABc |    dBG EAF | G3  G2 z :|
|: AGA  FGA  | BAB  GAB | {d}cBc ABc | dge d2 B  |
   cde  ABc  | Bcd  GAB | {d}cAF DEF | G3  G2 z :|


